X:210
T:Sprig of Shillelah,The. JC.214
T:Black Joke.aka. JC.214
R:Jig
S:John Clare,Poet,Helpstone (1793-1864)
N:No T.Sig given.MR. Most quavers not beamed in M/S,but to make it easier
N:for you all I’ve beamed them up, as it makes no difference to the tune.
N:CGP….MR.
N:Song text exists. See Deacon.
O:England
A:Northamptonshire
Z:vmp.P. Headford
M:6/8
L:1/8
Q:3/8=120
K:G
E|DEG GFG|A>BA Az” Qu’s”G/F/|\
GBd dcB|AcB A>GF|!
G>AB EFG|DGF G2″ crot”d|g>ab efg|dgfg2||!
G|BGB dBd|ece d2d|BGB dBd|eced2B|!
ccc BBB|A>BAA2(G/A/)|BGB d>cB|!
AcB A>GF|GAB EFG|DGFG2|]

